static/assets/svg/human/humanClothes/female_shirt7_stickers/female_shirt7_sticker10.svg

<svg class="shirtOverlay" width="86" height="380" viewBox="202.715 584.407 86.5933 380.048" preserveAspectRatio="xMidYMax" xmlns="http://www.w3.org/2000/svg">
  <defs id="svgEditorDefs">
    <path id="svgEditorClosePathDefs" fill="black" style="stroke-width: 0px; stroke: none;" class="clothes"/>
    <pattern id="pattern-0" x="0" y="0" width="20" height="20" patternUnits="userSpaceOnUse" viewBox="0 0 100 100">
      <rect x="-0.664" y="-1.212" width="102.124" height="101.273" style="fill: rgb(177, 255, 238);"/>
      <g transform="matrix(1.509721, 0, 0, 1.450232, -3.45347, -6.83138)">
        <g id="layer1" transform="matrix(1, 0, 0, 1, -337.380005, -494.5)">
          <rect id="rect9425" style="opacity: 0.38683; fill: rgb(227, 255, 41);" transform="matrix(.92501 -.37994 .37994 .92501 0 0)" height="54.483" width="52.636" y="607.24" x="116.28"/>
          <g id="g9637" transform="matrix(2.1949 0 0 2.1949 -3771.5 -832.81)">
            <g id="g9639" transform="translate(-21.861 6.246)">
              <path id="path9641" style="stroke: rgb(0, 0, 0); stroke-width: 0.7; fill: rgb(227, 255, 41);" d="m1894.6 607.57 3.6829 2.3108"/>
              <path id="path9643" style="stroke: rgb(0, 0, 0); stroke-width: 0.7; fill: rgb(227, 255, 41);" d="m1896.9 606.92-1.2276 3.4663"/>
            </g>
            <g id="g9645" transform="translate(-17.294 4.0186)">
              <path id="path9647" d="m1894.6 607.57 3.6829 2.3108" style="stroke: rgb(0, 0, 0); stroke-width: 0.7; fill: rgb(227, 255, 41);"/>
              <path id="path9649" d="m1896.9 606.92-1.2276 3.4663" style="stroke: rgb(0, 0, 0); stroke-width: 0.7; fill: rgb(227, 255, 41);"/>
            </g>
            <g id="g9651" transform="translate(-11.55 1.7678)">
              <path id="path9653" style="stroke: rgb(0, 0, 0); stroke-width: 0.7; fill: rgb(227, 255, 41);" d="m1894.6 607.57 3.6829 2.3108"/>
              <path id="path9655" style="stroke: rgb(0, 0, 0); stroke-width: 0.7; fill: rgb(227, 255, 41);" d="m1896.9 606.92-1.2276 3.4663"/>
            </g>
            <g id="g9657" transform="translate(-5.8775 -.44271)">
              <path id="path9659" d="m1894.6 607.57 3.6829 2.3108" style="stroke: rgb(0, 0, 0); stroke-width: 0.7; fill: rgb(227, 255, 41);"/>
              <path id="path9661" d="m1896.9 606.92-1.2276 3.4663" style="stroke: rgb(0, 0, 0); stroke-width: 0.7; fill: rgb(227, 255, 41);"/>
            </g>
            <g id="g9663" transform="translate(-21.679 11.364)">
              <path id="path9665" style="stroke: rgb(0, 0, 0); stroke-width: 0.7; fill: rgb(227, 255, 41);" d="m1894.6 607.57 3.6829 2.3108"/>
              <path id="path9667" style="stroke: rgb(0, 0, 0); stroke-width: 0.7; fill: rgb(227, 255, 41);" d="m1896.9 606.92-1.2276 3.4663"/>
            </g>
            <g id="g9669" transform="translate(-18.126 20.852)">
              <path id="path9671" d="m1894.6 607.57 3.6829 2.3108" style="stroke: rgb(0, 0, 0); stroke-width: 0.7; fill: rgb(227, 255, 41);"/>
              <path id="path9673" d="m1896.9 606.92-1.2276 3.4663" style="stroke: rgb(0, 0, 0); stroke-width: 0.7; fill: rgb(227, 255, 41);"/>
            </g>
            <g id="g9675" transform="translate(-19.898 16.435)">
              <path id="path9677" d="m1894.6 607.57 3.6829 2.3108" style="stroke: rgb(0, 0, 0); stroke-width: 0.7; fill: rgb(227, 255, 41);"/>
              <path id="path9679" d="m1896.9 606.92-1.2276 3.4663" style="stroke: rgb(0, 0, 0); stroke-width: 0.7; fill: rgb(227, 255, 41);"/>
            </g>
            <g id="g9681" transform="translate(-12.076 28.315)">
              <path id="path9683" d="m1894.6 607.57 3.6829 2.3108" style="stroke: rgb(0, 0, 0); stroke-width: 0.7; fill: rgb(227, 255, 41);"/>
              <path id="path9685" d="m1896.9 606.92-1.2276 3.4663" style="stroke: rgb(0, 0, 0); stroke-width: 0.7; fill: rgb(227, 255, 41);"/>
            </g>
            <g id="g9687" transform="translate(-7.5084 26.088)">
              <path id="path9689" style="stroke: rgb(0, 0, 0); stroke-width: 0.7; fill: rgb(227, 255, 41);" d="m1894.6 607.57 3.6829 2.3108"/>
              <path id="path9691" style="stroke: rgb(0, 0, 0); stroke-width: 0.7; fill: rgb(227, 255, 41);" d="m1896.9 606.92-1.2276 3.4663"/>
            </g>
            <g id="g9693" transform="translate(-2.0764 24.358)">
              <path id="path9695" d="m1894.6 607.57 3.6829 2.3108" style="stroke: rgb(0, 0, 0); stroke-width: 0.7; fill: rgb(227, 255, 41);"/>
              <path id="path9697" d="m1896.9 606.92-1.2276 3.4663" style="stroke: rgb(0, 0, 0); stroke-width: 0.7; fill: rgb(227, 255, 41);"/>
            </g>
            <g id="g9699" transform="translate(3.2834 21.835)">
              <path id="path9701" style="stroke: rgb(0, 0, 0); stroke-width: 0.7; fill: rgb(227, 255, 41);" d="m1894.6 607.57 3.6829 2.3108"/>
              <path id="path9703" style="stroke: rgb(0, 0, 0); stroke-width: 0.7; fill: rgb(227, 255, 41);" d="m1896.9 606.92-1.2276 3.4663"/>
            </g>
            <g id="g9705" transform="translate(.78496 2.9926)">
              <path id="path9707" d="m1894.6 607.57 3.6829 2.3108" style="stroke: rgb(0, 0, 0); stroke-width: 0.7; fill: rgb(227, 255, 41);"/>
              <path id="path9709" d="m1896.9 606.92-1.2276 3.4663" style="stroke: rgb(0, 0, 0); stroke-width: 0.7; fill: rgb(227, 255, 41);"/>
            </g>
            <g id="g9711" transform="translate(5.5736 14.444)">
              <path id="path9713" style="stroke: rgb(0, 0, 0); stroke-width: 0.7; fill: rgb(227, 255, 41);" d="m1894.6 607.57 3.6829 2.3108"/>
              <path id="path9715" style="stroke: rgb(0, 0, 0); stroke-width: 0.7; fill: rgb(227, 255, 41);" d="m1896.9 606.92-1.2276 3.4663"/>
            </g>
            <g id="g9717" transform="translate(3.0752 8.7181)">
              <path id="path9719" style="stroke: rgb(0, 0, 0); stroke-width: 0.7; fill: rgb(227, 255, 41);" d="m1894.6 607.57 3.6829 2.3108"/>
              <path id="path9721" style="stroke: rgb(0, 0, 0); stroke-width: 0.7; fill: rgb(227, 255, 41);" d="m1896.9 606.92-1.2276 3.4663"/>
            </g>
            <g id="g9723" transform="translate(7.2152 19.561)">
              <path id="path9725" style="stroke: rgb(0, 0, 0); stroke-width: 0.7; fill: rgb(227, 255, 41);" d="m1894.6 607.57 3.6829 2.3108"/>
              <path id="path9727" style="stroke: rgb(0, 0, 0); stroke-width: 0.7; fill: rgb(227, 255, 41);" d="m1896.9 606.92-1.2276 3.4663"/>
            </g>
            <g id="g9729" transform="translate(-1.3351 -1.6814)">
              <path id="path9731" style="stroke: rgb(0, 0, 0); stroke-width: 0.7; fill: rgb(227, 255, 41);" d="m1894.6 607.57 3.6829 2.3108"/>
              <path id="path9733" style="stroke: rgb(0, 0, 0); stroke-width: 0.7; fill: rgb(227, 255, 41);" d="m1896.9 606.92-1.2276 3.4663"/>
            </g>
            <g id="g9735" transform="translate(-16.454 25.286)">
              <path id="path9737" style="stroke: rgb(0, 0, 0); stroke-width: 0.7; fill: rgb(227, 255, 41);" d="m1894.6 607.57 3.6829 2.3108"/>
              <path id="path9739" style="stroke: rgb(0, 0, 0); stroke-width: 0.7; fill: rgb(227, 255, 41);" d="m1896.9 606.92-1.2276 3.4663"/>
            </g>
          </g>
          <rect id="rect10143" style="opacity: 0.38683; fill: rgb(227, 255, 41);" transform="matrix(.92501 -.37994 .37994 .92501 0 0)" height="18.793" width="18.156" y="612.96" x="144.75"/>
          <rect id="rect10147" style="opacity: 0.38683; fill: rgb(227, 255, 41);" transform="matrix(.92501 -.37994 .37994 .92501 0 0)" height="18.793" width="18.156" y="633.96" x="122.72"/>
          <rect id="rect3999" style="opacity: 0.38683; fill: rgb(227, 255, 41);" transform="matrix(.92501 -.37994 .37994 .92501 0 0)" height="18.793" width="18.156" y="612.61" x="123.5"/>
          <rect id="rect4001" style="opacity: 0.38683; fill: rgb(227, 255, 41);" transform="matrix(.92501 -.37994 .37994 .92501 0 0)" height="18.793" width="18.156" y="635.72" x="143.31"/>
        </g>
      </g>
    </pattern>
    <linearGradient id="gradient-0" gradientUnits="userSpaceOnUse" x1="459.77" y1="465.738" x2="459.77" y2="967.223">
      <stop offset="0" style="stop-color: rgba(255, 0, 0, 1)"/>
      <stop offset="1" style="stop-color: rgba(153, 0, 0, 1)"/>
    </linearGradient>
    <linearGradient id="gradient-1" gradientUnits="userSpaceOnUse" x1="443.722" y1="557.843" x2="443.722" y2="734.28">
      <stop offset="0" style="stop-color: rgba(255, 0, 0, 1)"/>
      <stop offset="1" style="stop-color: rgba(153, 0, 0, 1)"/>
    </linearGradient>
  </defs>
  <g transform="matrix(0.154068, 0, 0, 0.154068, 214.084717, 702.787781)">
    <g id="g660" transform="matrix(0.969844, 0.027255, -0.049668, 1.767366, 0.135634, -480.408813)">
      <g id="g614" style="fill:#110000" transform="translate(-148.86,-412.09)">
        <path id="path607" style="fill-rule: evenodd; stroke: rgb(0, 0, 0); fill: url(#gradient-1);" d="M 571.936 679.757 C 521.013 699.908 550.082 557.844 381.245 557.844 L 237.838 580.467 C 1058.243 580.468 413.468 738.445 209.713 715.711 C 209.713 715.711 77.401 734.28 246.238 734.28 L 585.981 734.28 C 754.818 734.28 810.928 728.609 838.833 684.717 L 571.936 679.757 Z" transform="matrix(0.483743, 0.480273, -1.594913, 0.483742, 1259.486923, 120.426719)"/>
        <path id="path608" style="fill-rule: evenodd; stroke: rgb(0, 0, 0); fill: url(#gradient-0);" d="M 508.274 767.517 C 494.644 724.337 330.35 866.36 330.35 751.27 L 346.443 645.408 C 346.443 1204.628 595.3 630.38 561.94 509.46 C 561.94 509.46 589.19 404.59 589.19 519.68 L 589.19 751.27 C 589.19 866.36 521.09 1002.2 507.45 959.02 L 466.58 829.6 L 508.274 767.517 Z" transform="matrix(.70965 .70456 -.70456 .70965 502.32 -185.93)"/>
      </g>
      <g id="g626" transform="translate(-137.67,-320.14)">
        <path id="path619" style="stroke-width: 4.125; fill: none; stroke: rgb(138, 142, 123);" d="M 378.03 599.4 C 378.03 566.43 261.804 584.177 282.234 544.397"/>
        <path id="path618" style="stroke-width: 4.125; fill: none; stroke: rgb(138, 142, 123);" d="M 355.33 599.4 C 355.33 566.43 463.573 600.143 443.143 560.363"/>
      </g>
    </g>
  </g>
</svg>

<svg class="shirtOverlay" width="86" height="380" viewBox="202.715 584.407 86.593 380.048" preserveAspectRatio="xMidYMax" xmlns="http://www.w3.org/2000/svg"><defs><linearGradient id="b" gradientUnits="userSpaceOnUse" x1="459.77" y1="465.738" x2="459.77" y2="967.223"><stop offset="0" stop-color="red"/><stop offset="1" stop-color="#900"/></linearGradient><linearGradient id="a" gradientUnits="userSpaceOnUse" x1="443.722" y1="557.843" x2="443.722" y2="734.28"><stop offset="0" stop-color="red"/><stop offset="1" stop-color="#900"/></linearGradient></defs><g fill="#100" fill-rule="evenodd" stroke="#000"><path d="M571.936 679.757c-50.923 20.151-21.854-121.913-190.691-121.913l-143.407 22.623c820.405.001 175.63 157.978-28.125 135.244 0 0-132.312 18.569 36.525 18.569h339.743c168.837 0 224.947-5.671 252.852-49.563l-266.897-4.96z" transform="matrix(.0686 .1328 -.24202 .12502 382.29 554.017)" fill="url(#a)"/><path d="M508.274 767.517c-13.63-43.18-177.924 98.843-177.924-16.247l16.093-105.862c0 559.22 248.857-15.028 215.497-135.948 0 0 27.25-104.87 27.25 10.22v231.59c0 115.09-68.1 250.93-81.74 207.75L466.58 829.6l41.694-62.083z" transform="matrix(.10065 .19483 -.1107 .19028 271.496 467.419)" fill="url(#b)"/></g><g stroke-width="4.125" fill="none" stroke="#8a8e7b"><path d="M378.03 599.4c0-32.97-116.226-15.223-95.796-55.003M355.33 599.4c0-32.97 108.243.743 87.813-39.037" transform="matrix(.14942 .0042 -.00765 .2723 195.984 541.022)"/></g></svg>
